!! 00000] TT[WS
!!!OTL: Guanggunr kuqi
!!!ARE: Asia, China, Shanxi Lingxian
!! Ethnic Group: Han
!! WII, 147 (2)
!!!SCT: J0624
!!!YEM: Copyright 1995, estate of Helmut Schaffrath.
**kern
*ICvox
*Ivox
*M2/4
*k[f#c#g#]
*A:
{8ee
16ee
16ee
8aa
8ff#
=1
8aa
8cc#
4b
=2
8.a
16b
8aa
8cc#
=3
8a
8cc#
4b}
=4
{8.a
16b
8aa
8ff#
=5
8ee
8ff#
8ee
8ee
=6
8b
8ee
8b
8b
=7
8a
8f#
4e}
=8
{8.b
16b
8b
8ff#
=9
8.ee
16ee
8b
8ee
=10
8f#
8a
8.b
16cc#
=11
8a
8f#
4e}
==
!!!AGN: Xiaodiao. Qingge, Aisu
!!!ONB: ESAC (Essen Associative Code) Database: CHINA
!!!AMT: simple duple
!!!AIN: vox
!!!EED: Helmut Schaffrath
!!!EEV: 1.0
*-
